digital/Imbassy-X-Files/65ef0811cc67439994568a45/65ef0811cc67439994568f63_webflow-logo.svg

<svg fill="none" height="56" viewBox="0 0 124 56" width="124" xmlns="http://www.w3.org/2000/svg"><path d="m40.0396 24.6225c0-2.211-2.1631-4.5593-5.9062-4.5593-4.2034 0-8.821 3.0649-9.5267 9.1795-.721 6.1756 3.1449 8.9204 7.0415 8.9204 3.8965 0 5.9369-1.5096 8.0232-3.5224-1.7949-2.2415-4.1113-1.2046-4.5562-.9759-.4909.244-1.1199.5794-2.4085.5794-1.5034 0-3.0375-.6709-3.0375-3.4614 9.634-.9454 10.3704-3.9493 10.3704-6.1603zm-4.771.3659c-.0614.6862-.3375 1.8603-5.2159 2.516 1.0278-3.6291 2.9915-3.9036 3.8966-3.9036.8437 0 1.3807.6557 1.3193 1.3876zm-16.3227.5947s-2.071 6.4654-2.2397 6.999c-.0614-.5489-1.5801-12.1529-1.5801-12.1529-3.5284 0-5.41535 2.5007-6.4125 5.1387 0 0-2.5159 6.4806-2.73067 7.0295-.01534-.5032-.38352-6.9533-.38352-6.9533-.21478-3.2326-3.1909-5.1997-5.59941-5.1997l2.91476 17.5814c3.69714-.0152 5.69145-2.5007 6.73463-5.1387 0 0 2.22441-5.7181 2.31651-5.9774.0153.244 1.5954 11.1161 1.5954 11.1161 3.7125 0 5.7068-2.333 6.7807-4.8795l5.2005-12.7019c-3.6665 0-5.5994 2.4855-6.5966 5.1387zm34.7164-5.5504c-2.2858 0-4.0347 1.2351-5.5074 3.0497v-.0153l1.3193-10.5671c-3.0375 0-5.5074 2.6227-5.9829 6.5263l-2.3011 18.8623c1.7488 0 3.605-.5032 4.6022-1.7841.8898 1.1437 2.2244 2.0586 4.2034 2.0586 5.1238 0 8.6369-5.9164 8.6369-11.4668-.0307-5.0625-2.5006-6.6636-4.9704-6.6636zm-.4756 9.0728c-.5369 3.0954-2.2705 5.1997-3.9426 5.1997-1.6875 0-2.4085-.7472-2.4085-.7472.3221-2.7142.5216-4.3762 1.1352-5.8096.6136-1.4333 2.071-3.7206 3.5898-3.7206 1.488 0 2.163 1.967 1.6261 5.0777zm18.2402-8.6611h-3.5744l.0154-.183c.2454-2.3177.7977-3.5376 2.6233-3.7358 1.2426-.122 1.7948-.7624 1.9329-1.4639.1074-.5489.4449-2.455.4449-2.455-7.1795-.0457-9.4346 3.0345-10.0176 7.731l-.0153.1067h-.0767c-1.1659 0-2.4546 1.3114-2.6693 2.9735l-.0767.6099h2.3931l-2.0096 16.4988-.6136 2.9582c.0767 0 .1687.0152.2454.0152 3.3596-.122 5.5074-2.76 5.9829-6.5873l1.5648-12.8849h1.1199c1.1045 0 2.3931-1.0979 2.6233-2.9277zm18.5931-.305c-4.1266 0-8.0232 3.0192-9.2198 7.7615-1.1966 4.7422.6136 10.3536 6.6886 10.3536 6.0596 0 9.5573-5.8401 9.5573-10.7043 0-4.8338-3.2982-7.4108-7.0261-7.4108zm1.6722 8.8136c-.2148 2.1501-1.1659 5.4132-3.7738 5.4132-2.6233 0-2.2552-3.8121-1.9944-5.6267.2762-1.9365 1.3654-4.6965 3.7125-4.6965 2.1017 0 2.3012 2.4855 2.0557 4.91zm25.7418-3.3699s-2.071 6.4654-2.24 6.999c-.061-.5489-1.58-12.1529-1.58-12.1529-3.528 0-5.415 2.5007-6.412 5.1387 0 0-2.516 6.4806-2.731 7.0295-.015-.5032-.383-6.9533-.383-6.9533-.215-3.2326-3.191-5.1997-5.5998-5.1997l2.8998 17.5814c3.697-.0152 5.691-2.5007 6.734-5.1387 0 0 2.225-5.7181 2.301-5.9774.031.244 1.596 11.1161 1.596 11.1161 3.712 0 5.707-2.333 6.78-4.8795l5.201-12.7019c-3.651 0-5.584 2.4855-6.566 5.1387zm-42.6321-12.9764-3.0068 24.1078-.6136 2.9734c.0767 0 .1687.0152.2454.0152 3.237-.0457 5.5381-2.8667 5.9676-6.4195l1.7335-13.8303c.5216-4.2238-2.0096-6.8466-4.3261-6.8466z" fill="#fff"/></svg>

<svg width="124" height="56" viewBox="0 0 124 56" fill="none" xmlns="http://www.w3.org/2000/svg">
<path d="M40.0396 24.6225C40.0396 22.4115 37.8765 20.0632 34.1334 20.0632C29.93 20.0632 25.3124 23.1281 24.6067 29.2427C23.8857 35.4183 27.7516 38.1631 31.6482 38.1631C35.5447 38.1631 37.5851 36.6535 39.6714 34.6407C37.8765 32.3992 35.5601 33.4361 35.1152 33.6648C34.6243 33.9088 33.9953 34.2442 32.7067 34.2442C31.2033 34.2442 29.6692 33.5733 29.6692 30.7828C39.3032 29.8374 40.0396 26.8335 40.0396 24.6225ZM35.2686 24.9884C35.2072 25.6746 34.9311 26.8487 30.0527 27.5044C31.0805 23.8753 33.0442 23.6008 33.9493 23.6008C34.793 23.6008 35.33 24.2565 35.2686 24.9884ZM18.9459 25.5831C18.9459 25.5831 16.8749 32.0485 16.7062 32.5821C16.6448 32.0332 15.1261 20.4292 15.1261 20.4292C11.5977 20.4292 9.71075 22.9299 8.7136 25.5679C8.7136 25.5679 6.1977 32.0485 5.98293 32.5974C5.96759 32.0942 5.59941 25.6441 5.59941 25.6441C5.38463 22.4115 2.40851 20.4444 0 20.4444L2.91476 38.0258C6.6119 38.0106 8.60621 35.5251 9.64939 32.8871C9.64939 32.8871 11.8738 27.169 11.9659 26.9097C11.9812 27.1537 13.5613 38.0258 13.5613 38.0258C17.2738 38.0258 19.2681 35.6928 20.342 33.1463L25.5425 20.4444C21.876 20.4444 19.9431 22.9299 18.9459 25.5831ZM53.6623 20.0327C51.3765 20.0327 49.6276 21.2678 48.1549 23.0824V23.0671L49.4742 12.5C46.4367 12.5 43.9668 15.1227 43.4913 19.0263L41.1902 37.8886C42.939 37.8886 44.7952 37.3854 45.7924 36.1045C46.6822 37.2482 48.0168 38.1631 49.9958 38.1631C55.1196 38.1631 58.6327 32.2467 58.6327 26.6963C58.602 21.6338 56.1321 20.0327 53.6623 20.0327ZM53.1867 29.1055C52.6498 32.2009 50.9162 34.3052 49.2441 34.3052C47.5566 34.3052 46.8356 33.558 46.8356 33.558C47.1577 30.8438 47.3572 29.1818 47.9708 27.7484C48.5844 26.3151 50.0418 24.0278 51.5606 24.0278C53.0486 24.0278 53.7236 25.9948 53.1867 29.1055ZM71.4269 20.4444H67.8525L67.8679 20.2614C68.1133 17.9437 68.6656 16.7238 70.4912 16.5256C71.7338 16.4036 72.286 15.7632 72.4241 15.0617C72.5315 14.5128 72.869 12.6067 72.869 12.6067C65.6895 12.561 63.4344 15.6412 62.8514 20.3377L62.8361 20.4444H62.7594C61.5935 20.4444 60.3048 21.7558 60.0901 23.4179L60.0134 24.0278H62.4065L60.3969 40.5266L59.7833 43.4848C59.86 43.4848 59.952 43.5 60.0287 43.5C63.3883 43.378 65.5361 40.74 66.0116 36.9127L67.5764 24.0278H68.6963C69.8008 24.0278 71.0894 22.9299 71.3196 21.1001L71.4269 20.4444ZM90.02 20.1394C85.8934 20.1394 81.9968 23.1586 80.8002 27.9009C79.6036 32.6431 81.4138 38.2545 87.4888 38.2545C93.5484 38.2545 97.0461 32.4144 97.0461 27.5502C97.0461 22.7164 93.7479 20.1394 90.02 20.1394ZM91.6922 28.953C91.4774 31.1031 90.5263 34.3662 87.9184 34.3662C85.2951 34.3662 85.6632 30.5541 85.924 28.7395C86.2002 26.803 87.2894 24.043 89.6365 24.043C91.7382 24.043 91.9377 26.5285 91.6922 28.953ZM117.434 25.5831C117.434 25.5831 115.363 32.0485 115.194 32.5821C115.133 32.0332 113.614 20.4292 113.614 20.4292C110.086 20.4292 108.199 22.9299 107.202 25.5679C107.202 25.5679 104.686 32.0485 104.471 32.5974C104.456 32.0942 104.088 25.6441 104.088 25.6441C103.873 22.4115 100.897 20.4444 98.4882 20.4444L101.388 38.0258C105.085 38.0106 107.079 35.5251 108.122 32.8871C108.122 32.8871 110.347 27.169 110.423 26.9097C110.454 27.1537 112.019 38.0258 112.019 38.0258C115.731 38.0258 117.726 35.6928 118.799 33.1463L124 20.4444C120.349 20.4444 118.416 22.9299 117.434 25.5831ZM74.8019 12.6067L71.7951 36.7145L71.1815 39.6879C71.2582 39.6879 71.3502 39.7031 71.4269 39.7031C74.6639 39.6574 76.965 36.8364 77.3945 33.2836L79.128 19.4533C79.6496 15.2295 77.1184 12.6067 74.8019 12.6067Z" fill="white"/>
</svg>
